Numix/16/status/indicator-keyboard-Sa.svg

<?xml version="1.0" encoding="UTF-8" standalone="no"?>
<svg
   xmlns:dc="http://purl.org/dc/elements/1.1/"
   xmlns:cc="http://creativecommons.org/ns#"
   xmlns:rdf="http://www.w3.org/1999/02/22-rdf-syntax-ns#"
   xmlns:svg="http://www.w3.org/2000/svg"
   xmlns="http://www.w3.org/2000/svg"
   xmlns:sodipodi="http://sodipodi.sourceforge.net/DTD/sodipodi-0.dtd"
   xmlns:inkscape="http://www.inkscape.org/namespaces/inkscape"
   viewBox="0 0 16 16"
   id="svg2"
   version="1.1"
   inkscape:version="0.91 r13725"
   sodipodi:docname="indicator-keyboard-Sa.svg">
  <metadata
     id="metadata13">
    <rdf:RDF>
      <cc:Work
         rdf:about="">
        <dc:format>image/svg+xml</dc:format>
        <dc:type
           rdf:resource="http://purl.org/dc/dcmitype/StillImage" />
      </cc:Work>
    </rdf:RDF>
  </metadata>
  <defs
     id="defs11" />
  <sodipodi:namedview
     pagecolor="#ffffff"
     bordercolor="#666666"
     borderopacity="1"
     objecttolerance="10"
     gridtolerance="10"
     guidetolerance="10"
     inkscape:pageopacity="0"
     inkscape:pageshadow="2"
     inkscape:window-width="640"
     inkscape:window-height="480"
     id="namedview9"
     showgrid="false"
     inkscape:zoom="14.75"
     inkscape:cx="8"
     inkscape:cy="8"
     inkscape:window-x="65"
     inkscape:window-y="24"
     inkscape:window-maximized="0"
     inkscape:current-layer="svg2" />
  <path
     style="fill:#ececec;fill-opacity:1"
     d="M 1.5996094 0 C 0.71320937 2.9605947e-16 0 0.71320937 0 1.5996094 L 0 14.400391 C 2.9605947e-16 15.286791 0.71320937 16 1.5996094 16 L 14.400391 16 C 15.286791 16 16 15.286791 16 14.400391 L 16 1.5996094 C 16 0.71320937 15.286791 0 14.400391 0 L 1.5996094 0 z M 6.0722656 4.7460938 C 6.2402656 4.7460938 6.4044063 4.7592031 6.5664062 4.7832031 C 6.7284062 4.8072031 6.877625 4.8388594 7.015625 4.8808594 C 7.159625 4.9168594 7.2902969 4.9598125 7.4042969 5.0078125 C 7.5242969 5.0558125 7.6231719 5.1061563 7.7011719 5.1601562 L 7.484375 5.6738281 C 7.310375 5.5538281 7.0977031 5.4567656 6.8457031 5.3847656 C 6.5997031 5.3127656 6.3329219 5.2773438 6.0449219 5.2773438 C 5.8469219 5.2773438 5.6640938 5.2978437 5.4960938 5.3398438 C 5.3340938 5.3758437 5.1922656 5.4392969 5.0722656 5.5292969 C 4.9522656 5.6132969 4.8571563 5.7215156 4.7851562 5.8535156 C 4.7191563 5.9855156 4.6855469 6.1440781 4.6855469 6.3300781 C 4.6855469 6.5220781 4.7209688 6.6844063 4.7929688 6.8164062 C 4.8649688 6.9484063 4.9638437 7.0622031 5.0898438 7.1582031 C 5.2218437 7.2542031 5.3748281 7.3419219 5.5488281 7.4199219 C 5.7228281 7.4979219 5.9131875 7.5781094 6.1171875 7.6621094 C 6.3631875 7.7641094 6.5925937 7.86675 6.8085938 7.96875 C 7.0305938 8.07075 7.2227656 8.190125 7.3847656 8.328125 C 7.5467656 8.466125 7.6754844 8.6340313 7.7714844 8.8320312 C 7.8674844 9.0300313 7.9160156 9.2725469 7.9160156 9.5605469 C 7.9160156 10.124547 7.7182656 10.548078 7.3222656 10.830078 C 6.9322656 11.112078 6.4005156 11.253906 5.7285156 11.253906 C 5.4885156 11.253906 5.2702656 11.238984 5.0722656 11.208984 C 4.8742656 11.178984 4.6970156 11.141609 4.5410156 11.099609 C 4.3850156 11.051609 4.2525312 11.005031 4.1445312 10.957031 C 4.0365312 10.909031 3.9525781 10.866078 3.8925781 10.830078 L 4.0917969 10.298828 C 4.1517969 10.334828 4.2319844 10.377781 4.3339844 10.425781 C 4.4359844 10.473781 4.5573125 10.522312 4.6953125 10.570312 C 4.8333125 10.612312 4.9881094 10.647734 5.1621094 10.677734 C 5.3361094 10.707734 5.5282812 10.722656 5.7382812 10.722656 C 6.2242813 10.722656 6.6030469 10.634938 6.8730469 10.460938 C 7.1430469 10.280937 7.2773437 9.9936564 7.2773438 9.5976562 C 7.2773438 9.3696562 7.2325781 9.18125 7.1425781 9.03125 C 7.0585781 8.87525 6.9447812 8.7445781 6.8007812 8.6425781 C 6.6567812 8.5345781 6.4906875 8.4450469 6.3046875 8.3730469 C 6.1186875 8.2950469 5.9247031 8.2148594 5.7207031 8.1308594 C 5.4627031 8.0288594 5.2313437 7.9244062 5.0273438 7.8164062 C 4.8233438 7.7084063 4.6498594 7.5870781 4.5058594 7.4550781 C 4.3618594 7.3170781 4.249875 7.1622813 4.171875 6.9882812 C 4.099875 6.8142812 4.0644531 6.609 4.0644531 6.375 C 4.0644531 5.841 4.2417031 5.4361563 4.5957031 5.1601562 C 4.9497031 4.8841563 5.4422656 4.7460938 6.0722656 4.7460938 z M 10.431641 6.3574219 C 10.737641 6.3574219 10.997031 6.4021875 11.207031 6.4921875 C 11.423031 6.5761875 11.596516 6.6955625 11.728516 6.8515625 C 11.860516 7.0015625 11.957578 7.1825781 12.017578 7.3925781 C 12.077578 7.6025781 12.107422 7.8301719 12.107422 8.0761719 L 12.107422 11.009766 C 12.047422 11.027766 11.959703 11.050219 11.845703 11.074219 C 11.731703 11.092219 11.599219 11.112719 11.449219 11.136719 C 11.299219 11.160719 11.131312 11.179406 10.945312 11.191406 C 10.765312 11.209406 10.578719 11.216797 10.386719 11.216797 C 10.140719 11.216797 9.9131252 11.190719 9.703125 11.136719 C 9.499125 11.082719 9.3200625 10.998766 9.1640625 10.884766 C 9.0140625 10.764766 8.8927344 10.613594 8.8027344 10.433594 C 8.7187344 10.247594 8.6777344 10.023766 8.6777344 9.7597656 C 8.6777344 9.5077656 8.7262656 9.2913281 8.8222656 9.1113281 C 8.9182656 8.9313281 9.0525625 8.7839219 9.2265625 8.6699219 C 9.4005625 8.5499219 9.6076562 8.4641563 9.8476562 8.4101562 C 10.087656 8.3561562 10.348859 8.328125 10.630859 8.328125 C 10.714859 8.328125 10.802578 8.3337031 10.892578 8.3457031 C 10.988578 8.3517031 11.078109 8.3648125 11.162109 8.3828125 C 11.252109 8.3948125 11.326719 8.4097344 11.386719 8.4277344 C 11.452719 8.4397344 11.497484 8.4508906 11.521484 8.4628906 L 11.521484 8.1757812 C 11.521484 8.0137812 11.510328 7.8570313 11.486328 7.7070312 C 11.462328 7.5510312 11.408219 7.4129688 11.324219 7.2929688 C 11.246219 7.1669687 11.132422 7.0680938 10.982422 6.9960938 C 10.838422 6.9180938 10.64625 6.8789062 10.40625 6.8789062 C 10.06425 6.8789062 9.808625 6.9031719 9.640625 6.9511719 C 9.472625 6.9991719 9.3494844 7.0383594 9.2714844 7.0683594 L 9.1914062 6.5546875 C 9.2934063 6.5066875 9.4482031 6.4619219 9.6582031 6.4199219 C 9.8742031 6.3779219 10.13164 6.3574219 10.431641 6.3574219 z M 10.613281 8.8320312 C 10.469281 8.8320312 10.318109 8.8451406 10.162109 8.8691406 C 10.006109 8.8871406 9.8624687 8.9319063 9.7304688 9.0039062 C 9.5984688 9.0699062 9.49025 9.1632031 9.40625 9.2832031 C 9.32225 9.4032031 9.28125 9.5617656 9.28125 9.7597656 C 9.28125 9.9337658 9.3073281 10.081172 9.3613281 10.201172 C 9.4213281 10.321172 9.5034688 10.416281 9.6054688 10.488281 C 9.7134688 10.560281 9.8384219 10.614391 9.9824219 10.650391 C 10.132422 10.680391 10.300328 10.695312 10.486328 10.695312 C 10.714328 10.695312 10.912078 10.689734 11.080078 10.677734 C 11.254078 10.659734 11.401484 10.639234 11.521484 10.615234 L 11.521484 8.9765625 C 11.455484 8.9465625 11.351031 8.9167187 11.207031 8.8867188 C 11.063031 8.8507188 10.865281 8.8320313 10.613281 8.8320312 z "
     id="path4" />
</svg>

<svg xmlns="http://www.w3.org/2000/svg" viewBox="0 0 16 16">
 <path d="m 1.6 0 c -0.886 0 -1.6 0.713 -1.6 1.6 l 0 12.801 c 0 0.886 0.713 1.6 1.6 1.6 l 12.801 0 c 0.886 0 1.6 -0.713 1.6 -1.6 l 0 -12.801 c 0 -0.886 -0.713 -1.6 -1.6 -1.6 l -12.801 0 z m 4.473 4.746 c 0.168 0 0.332 0.013 0.494 0.037 c 0.162 0.024 0.311 0.056 0.449 0.098 c 0.144 0.036 0.275 0.079 0.389 0.127 c 0.12 0.048 0.219 0.098 0.297 0.152 l -0.217 0.514 c -0.174 -0.12 -0.387 -0.217 -0.639 -0.289 c -0.246 -0.072 -0.513 -0.107 -0.801 -0.107 c -0.198 0 -0.381 0.02 -0.549 0.063 c -0.162 0.036 -0.304 0.099 -0.424 0.189 c -0.12 0.084 -0.215 0.192 -0.287 0.324 c -0.066 0.132 -0.1 0.291 -0.1 0.477 c 0 0.192 0.035 0.354 0.107 0.486 c 0.072 0.132 0.171 0.246 0.297 0.342 c 0.132 0.096 0.285 0.184 0.459 0.262 c 0.174 0.078 0.364 0.158 0.568 0.242 c 0.246 0.102 0.475 0.205 0.691 0.307 c 0.222 0.102 0.414 0.221 0.576 0.359 c 0.162 0.138 0.291 0.306 0.387 0.504 c 0.096 0.198 0.145 0.441 0.145 0.729 c 0 0.564 -0.198 0.988 -0.594 1.27 c -0.39 0.282 -0.922 0.424 -1.594 0.424 c -0.24 0 -0.458 -0.015 -0.656 -0.045 c -0.198 -0.03 -0.375 -0.067 -0.531 -0.109 c -0.156 -0.048 -0.288 -0.095 -0.396 -0.143 c -0.108 -0.048 -0.192 -0.091 -0.252 -0.127 l 0.199 -0.531 c 0.06 0.036 0.14 0.079 0.242 0.127 c 0.102 0.048 0.223 0.097 0.361 0.145 c 0.138 0.042 0.293 0.077 0.467 0.107 c 0.174 0.03 0.366 0.045 0.576 0.045 c 0.486 0 0.865 -0.088 1.135 -0.262 c 0.27 -0.18 0.404 -0.467 0.404 -0.863 c 0 -0.228 -0.045 -0.416 -0.135 -0.566 c -0.084 -0.156 -0.198 -0.287 -0.342 -0.389 c -0.144 -0.108 -0.31 -0.198 -0.496 -0.27 c -0.186 -0.078 -0.38 -0.158 -0.584 -0.242 c -0.258 -0.102 -0.489 -0.206 -0.693 -0.314 c -0.204 -0.108 -0.377 -0.229 -0.521 -0.361 c -0.144 -0.138 -0.256 -0.293 -0.334 -0.467 c -0.072 -0.174 -0.107 -0.379 -0.107 -0.613 c 0 -0.534 0.177 -0.939 0.531 -1.215 c 0.354 -0.276 0.847 -0.414 1.477 -0.414 z m 4.359 1.611 c 0.306 0 0.565 0.045 0.775 0.135 c 0.216 0.084 0.389 0.203 0.521 0.359 c 0.132 0.15 0.229 0.331 0.289 0.541 c 0.06 0.21 0.09 0.438 0.09 0.684 l 0 2.934 c -0.06 0.018 -0.148 0.04 -0.262 0.064 c -0.114 0.018 -0.246 0.039 -0.396 0.063 c -0.15 0.024 -0.318 0.043 -0.504 0.055 c -0.18 0.018 -0.367 0.025 -0.559 0.025 c -0.246 0 -0.474 -0.026 -0.684 -0.08 c -0.204 -0.054 -0.383 -0.138 -0.539 -0.252 c -0.15 -0.12 -0.271 -0.271 -0.361 -0.451 c -0.084 -0.186 -0.125 -0.41 -0.125 -0.674 c 0 -0.252 0.049 -0.468 0.145 -0.648 c 0.096 -0.18 0.23 -0.327 0.404 -0.441 c 0.174 -0.12 0.381 -0.206 0.621 -0.26 c 0.24 -0.054 0.501 -0.082 0.783 -0.082 c 0.084 0 0.172 0.006 0.262 0.018 c 0.096 0.006 0.186 0.019 0.27 0.037 c 0.09 0.012 0.165 0.027 0.225 0.045 c 0.066 0.012 0.111 0.023 0.135 0.035 l 0 -0.287 c 0 -0.162 -0.011 -0.319 -0.035 -0.469 c -0.024 -0.156 -0.078 -0.294 -0.162 -0.414 c -0.078 -0.126 -0.192 -0.225 -0.342 -0.297 c -0.144 -0.078 -0.336 -0.117 -0.576 -0.117 c -0.342 0 -0.598 0.024 -0.766 0.072 c -0.168 0.048 -0.291 0.087 -0.369 0.117 l -0.08 -0.514 c 0.102 -0.048 0.257 -0.093 0.467 -0.135 c 0.216 -0.042 0.473 -0.063 0.773 -0.063 z m 0.182 2.475 c -0.144 0 -0.295 0.013 -0.451 0.037 c -0.156 0.018 -0.3 0.063 -0.432 0.135 c -0.132 0.066 -0.24 0.159 -0.324 0.279 c -0.084 0.12 -0.125 0.279 -0.125 0.477 c 0 0.174 0.026 0.321 0.08 0.441 c 0.06 0.12 0.142 0.215 0.244 0.287 c 0.108 0.072 0.233 0.126 0.377 0.162 c 0.15 0.03 0.318 0.045 0.504 0.045 c 0.228 0 0.426 -0.006 0.594 -0.018 c 0.174 -0.018 0.321 -0.038 0.441 -0.063 l 0 -1.639 c -0.066 -0.03 -0.17 -0.06 -0.314 -0.09 c -0.144 -0.036 -0.342 -0.055 -0.594 -0.055 z" style="fill:#ececec;fill-opacity:1"/>
</svg>
